X:221
T:Desert Storm
C:R Mathieson
S:Zoë Conway
Z:robin.beech@mcgill.ca
R:reel
M:4/4
L:1/8
K:Edor
BABE- EBE2- | EBBc dcBA | BABE- EBE2- | AFAd- dBAF- |
FBAB E3B | BABe- e ddB | AFAd- dBAF | ABE2 E2FA :|
B2B2 e2ed- | dBcA BEFA | BABE- EBE2 | ABAF DBAF |
B2B2 e2ed- | dBcA BBAF | DFAd- dBAF |1 ABE2 E2FA :|2 ABE2 E4 |:
e2B2 B2cd | eBed- dBAF | d2cd FAdd- | dFFd FAdB |
e2e2 dBAF | AdcB- BAAF | DFAd- dBAF |1 ABE2 E4 :|2 ABE2 E2FA |]
